Catalina-dark/actions/16/document-save-all.svg

<?xml version="1.0" encoding="UTF-8" standalone="no"?>
<svg
   xmlns:dc="http://purl.org/dc/elements/1.1/"
   xmlns:cc="http://creativecommons.org/ns#"
   xmlns:rdf="http://www.w3.org/1999/02/22-rdf-syntax-ns#"
   xmlns:svg="http://www.w3.org/2000/svg"
   xmlns="http://www.w3.org/2000/svg"
   xmlns:sodipodi="http://sodipodi.sourceforge.net/DTD/sodipodi-0.dtd"
   xmlns:inkscape="http://www.inkscape.org/namespaces/inkscape"
   width="16"
   height="16"
   viewBox="0 0 16 16"
   version="1.1"
   id="svg7"
   sodipodi:docname="document-save-all.svg"
   inkscape:version="0.92.4 5da689c313, 2019-01-14">
  <metadata
     id="metadata11">
    <rdf:RDF>
      <cc:Work
         rdf:about="">
        <dc:format>image/svg+xml</dc:format>
        <dc:type
           rdf:resource="http://purl.org/dc/dcmitype/StillImage" />
      </cc:Work>
    </rdf:RDF>
  </metadata>
  <sodipodi:namedview
     pagecolor="#ffffff"
     bordercolor="#666666"
     borderopacity="1"
     objecttolerance="10"
     gridtolerance="10"
     guidetolerance="10"
     inkscape:pageopacity="0"
     inkscape:pageshadow="2"
     inkscape:window-width="640"
     inkscape:window-height="480"
     id="namedview9"
     showgrid="false"
     inkscape:zoom="14.75"
     inkscape:cx="6.8135593"
     inkscape:cy="8"
     inkscape:window-x="0"
     inkscape:window-y="26"
     inkscape:window-maximized="0"
     inkscape:current-layer="svg7" />
  <defs
     id="defs3">
    <style
       id="current-color-scheme"
       type="text/css">
   .ColorScheme-Text { color:#5c616c; } .ColorScheme-Highlight { color:#5294e2; }
  </style>
  </defs>
  <path
     style="fill:#f1f6f8;fill-opacity:0.8509804"
     class="ColorScheme-Text"
     d="M 5.9902344 1.0195312 L 6 7.0195312 L 3.6582031 7.0195312 L 6.9980469 11.880859 L 6.9980469 9.8945312 C 6.9980469 8.8839313 7.8992069 8.0507812 8.8730469 8.0507812 L 11.65625 8.0507812 L 12.373047 7.0195312 L 9.9980469 7.0195312 L 9.9882812 1.0195312 L 5.9902344 1.0195312 z M 8.8730469 9.0507812 C 8.3806469 9.0507812 7.9980469 9.4064312 7.9980469 9.8945312 L 7.9980469 15.113281 C 7.9980469 15.601281 8.3806469 15.957031 8.8730469 15.957031 L 15.123047 15.957031 C 15.615047 15.957031 15.998047 15.601281 15.998047 15.113281 L 15.998047 9.8945312 C 15.998047 9.4064313 15.615047 9.0507813 15.123047 9.0507812 L 8.8730469 9.0507812 z M 10 10 L 14 10 L 14 15 L 13 15 L 13 13 L 11 13 L 11 15 L 10 15 L 10 10 z M 11 11 L 11 12 L 13 12 L 13 11 L 11 11 z M 1 14.03125 L 1 16 L 7.2578125 16 C 7.1014025 15.73508 7.0019531 15.435541 7.0019531 15.113281 L 7.0019531 14.03125 L 1 14.03125 z"
     id="path5" />
</svg>

<svg width="16" height="16" version="1.1" viewBox="0 0 16 16" xmlns="http://www.w3.org/2000/svg">
<defs>
<style id="current-color-scheme" type="text/css">.ColorScheme-Text { color:#5c616c; } .ColorScheme-Highlight { color:#5294e2; }</style>
</defs>
<path class="ColorScheme-Text" d="m5.9902 1.0195 0.0097656 6h-2.3418l3.3398 4.8613v-1.9863c0-1.0106 0.90116-1.8438 1.875-1.8438h2.7832l0.7168-1.0312h-2.375l-0.0097657-6h-3.998zm2.8828 8.0312c-0.4924 0-0.875 0.35565-0.875 0.84375v5.2187c0 0.488 0.3826 0.84375 0.875 0.84375h6.25c0.492 0 0.875-0.35575 0.875-0.84375v-5.2187c0-0.4881-0.383-0.84375-0.875-0.84375h-6.25zm1.127 0.94922h4v5h-1v-2h-2v2h-1v-5zm1 1v1h2v-1h-2zm-10 3.0312v1.9688h6.2578c-0.15641-0.26492-0.25586-0.56446-0.25586-0.88672v-1.082h-6.002z" fill="#f1f6f8" fill-opacity=".85098"/>
</svg>
